data/platypi.svg

<svg width="48.118" height="19.264" viewBox="0 0 48.118 19.264" xmlns="http://www.w3.org/2000/svg"><path transform="translate(0 15.75) scale(.014 -.014)" d="m29 0v17l77 61v534l-77 61v17h191v-612l90-61v-17zm263 278h-124v52h133q67 0 109.5 43t42.5 112q0 71-41 112t-111 41h-151v52h173q78 0 134.5-24t88-67.5 31.5-102.5q0-66-35.5-115t-99-76-150.5-27z"/><path transform="translate(8.666 15.75) scale(.014 -.014)" d="m34 0v15l87 71-16-28v609l43-67-115 89v17l153 59h25v-709l-15 29 86-70v-15z"/><path transform="translate(12.894 15.75) scale(.014 -.014)" d="m412-12-27 78h-10v237q0 67-30 101t-89 34q-31 0-59.5-13t-46.5-35l5 83h83l-107-140h-18l-53 114q26 15 59 26t70 17.5 74 6.5q109 0 163.5-43.5t54.5-130.5v-238l-41 61 106-80v-17l-115-61zm-216-1q-66 0-107.5 36.5t-41.5 94.5q0 134 210 169l152 24v-43l-107-26q-81-19-113.5-42.5t-32.5-64.5q0-33 22-52t61-19q92 0 151 62v-60h-14q-38-40-82-59.5t-98-19.5z"/><path transform="translate(20.804 15.75) scale(.014 -.014)" d="m269-13q-52 0-91 22t-60 61.5-21 93.5v303l43-59h-127v17l166 188h24v-420q0-64 23.5-96.5t72.5-32.5q67 0 113 55l28-19q-23-51-68.5-82t-102.5-31zm122 412-210 27v48l207 24h14v-92z"/><path transform="translate(27.146 15.75) scale(.014 -.014)" d="m264-61-226 510h36v-64l-72 84v15h228v-15l-69-68h-11v47l176-397-33-3 149 412v-56h-11l-72 65v15h210v-15l-71-81v61h37l-356-700h-18l-94 88v14l199 144z"/><path transform="translate(35.14 15.75) scale(.014 -.014)" d="m315-13q-89 0-145 42v93q24-39 62-59t87-20q46 0 80 24.5t53.5 68 19.5 101.5q0 86-34.5 133.5t-98.5 47.5q-43 0-77-17t-66-55v64h14q30 40 75 63t91 23q64 0 110-29t71.5-82.5 25.5-126.5q0-79-34-140t-95-96-139-35zm-281-222v15l87 71-16-28v567l43-66-115 90v17l153 58h25l-6-79h6v-589l-15 26 110-67v-15z"/><path transform="translate(43.89 15.75) scale(.014 -.014)" d="m34 0v15l87 71-16-28v332l43-65-115 89v17l153 58h25v-433l-15 29 86-70v-15zm126 560q-35 0-56 20t-21 52q0 31 21 51t56 20q34 0 55-20t21-51q0-32-21-52t-55-20z"/></svg>

<?xml version="1.0" encoding="utf-8" ?>
<svg baseProfile="tiny" height="100%" version="1.2" width="100%" xmlns="http://www.w3.org/2000/svg" xmlns:ev="http://www.w3.org/2001/xml-events" xmlns:xlink="http://www.w3.org/1999/xlink"><defs /><g><path d="M29 0V17L106 78V612L29 673V690H220V78L310 17V0ZM292 278H168V330H301Q368 330 410.5 373.0Q453 416 453 485Q453 556 412.0 597.0Q371 638 301 638H150V690H323Q401 690 457.5 666.0Q514 642 545.5 598.5Q577 555 577 496Q577 430 541.5 381.0Q506 332 442.5 305.0Q379 278 292 278Z" transform="translate(0.0, 72) scale(0.072, -0.072)" /><path d="M34 0V15L121 86L105 58V667L148 600L33 689V706L186 765H211V56L196 85L282 15V0Z" transform="translate(44.568, 72) scale(0.072, -0.072)" /><path d="M412 -12 385 66H375V303Q375 370 345.0 404.0Q315 438 256 438Q225 438 196.5 425.0Q168 412 150 390L155 473H238L131 333H113L60 447Q86 462 119.0 473.0Q152 484 189.0 490.5Q226 497 263 497Q372 497 426.5 453.5Q481 410 481 323V85L440 146L546 66V49L431 -12ZM196 -13Q130 -13 88.5 23.5Q47 60 47 118Q47 252 257 287L409 311V268L302 242Q221 223 188.5 199.5Q156 176 156 135Q156 102 178.0 83.0Q200 64 239 64Q331 64 390 126V66H376Q338 26 294.0 6.5Q250 -13 196 -13Z" transform="translate(66.312, 72) scale(0.072, -0.072)" /><path d="M269 -13Q217 -13 178.0 9.0Q139 31 118.0 70.5Q97 110 97 164V467L140 408H13V425L179 613H203V193Q203 129 226.5 96.5Q250 64 299 64Q366 64 412 119L440 100Q417 49 371.5 18.0Q326 -13 269 -13ZM391 399 181 426V474L388 498H402V406Z" transform="translate(106.99199999999999, 72) scale(0.072, -0.072)" /><path d="M264 -61 38 449H74V385L2 469V484H230V469L161 401H150V448L326 51L293 48L442 460V404H431L359 469V484H569V469L498 388V449H535L179 -251H161L67 -163V-149L266 -5Z" transform="translate(139.608, 72) scale(0.072, -0.072)" /><path d="M315 -13Q226 -13 170 29V122Q194 83 232.0 63.0Q270 43 319 43Q365 43 399.0 67.5Q433 92 452.5 135.5Q472 179 472 237Q472 323 437.5 370.5Q403 418 339 418Q296 418 262.0 401.0Q228 384 196 346V410H210Q240 450 285.0 473.0Q330 496 376 496Q440 496 486.0 467.0Q532 438 557.5 384.5Q583 331 583 258Q583 179 549.0 118.0Q515 57 454.0 22.0Q393 -13 315 -13ZM34 -235V-220L121 -149L105 -177V390L148 324L33 414V431L186 489H211L205 410H211V-179L196 -153L306 -220V-235Z" transform="translate(180.72, 72) scale(0.072, -0.072)" /><path d="M34 0V15L121 86L105 58V390L148 325L33 414V431L186 489H211V56L196 85L282 15V0ZM160 560Q125 560 104.0 580.0Q83 600 83 632Q83 663 104.0 683.0Q125 703 160 703Q194 703 215.0 683.0Q236 663 236 632Q236 600 215.0 580.0Q194 560 160 560Z" transform="translate(225.72, 72) scale(0.072, -0.072)" /></g></svg>
